X: 319
T: Bugich's  Khosidl #2
R: khusidl
Q: 1/4=80
B: German Goldenshteyn "Shpilt klezmorimlach klingen zoln di gesalach" New York 2003 v.3 #19
Z: 2012 John Chambers <jc:trillian.mit.edu>
M: 2/4
L: 1/16
K: Em
%%slurgraces
%%graceslurs
|:\
{B,}E2(EB,) {B,}G2(GE) | {E}B2(BA) (AG)(GF) | (GA)(AG) (GF)(FE) | (~G2E2) (~G2E2) |\
{B,}E2(EB,) {B,}G2(GE) | {E}B2(BA) (AG)(GF) | (GA)(AG) (GF)(FE) |[1 E4 E4 :|
[2 E4- EDGA \
|:\
B6 ~A2 | G6 ~A2 | BGBG ~B2A2 | G4- GEGA |\
B6 ~A2 | G6 G2 | (GD)(DG) | (G=F)(FE) | E4 E4 :|
